public/assets/img/svg/embed/gallery.svg

<svg xmlns="http://www.w3.org/2000/svg" width="48" height="48" viewBox="1331.491 44.329 48 48" enable-background="new 1331.491 44.329 48 48"><path d="M1342.304 52.5h26.374c.414 0 .75-.336.75-.75s-.336-.75-.75-.75h-26.374c-.413 0-.75.336-.75.75s.337.75.75.75zm31.929 3.893h-37.483c-.414 0-.75.336-.75.75v27.765c0 .414.336.75.75.75h37.483c.414 0 .75-.336.75-.75v-27.765c0-.414-.336-.75-.75-.75zm-36.733 1.5h35.982v26.265h-35.982v-26.265zm2.028-2.616h31.931c.415 0 .749-.336.749-.75s-.334-.75-.749-.75h-31.931c-.415 0-.75.336-.75.75s.335.75.75.75z"/></svg>

<?xml version="1.0" encoding="utf-8"?>
<!-- Generator: Adobe Illustrator 17.0.0, SVG Export Plug-In . SVG Version: 6.00 Build 0)  -->
<!DOCTYPE svg PUBLIC "-//W3C//DTD SVG 1.1//EN" "http://www.w3.org/Graphics/SVG/1.1/DTD/svg11.dtd">
<svg version="1.1" id="Layer_1" xmlns="http://www.w3.org/2000/svg" xmlns:xlink="http://www.w3.org/1999/xlink" x="0px" y="0px"
	 width="48px" height="48px" viewBox="1331.491 44.329 48 48" enable-background="new 1331.491 44.329 48 48" xml:space="preserve">
<path d="M1342.304,52.5h26.374c0.414,0,0.75-0.336,0.75-0.75s-0.336-0.75-0.75-0.75h-26.374c-0.413,0-0.75,0.336-0.75,0.75
	S1341.891,52.5,1342.304,52.5L1342.304,52.5z M1374.233,56.393h-37.483c-0.414,0-0.75,0.336-0.75,0.75v27.765
	c0,0.414,0.336,0.75,0.75,0.75h37.483c0.414,0,0.75-0.336,0.75-0.75V57.143C1374.983,56.729,1374.647,56.393,1374.233,56.393
	L1374.233,56.393z M1337.5,57.893h35.982v26.265H1337.5V57.893z M1339.528,55.277h31.931c0.415,0,0.749-0.336,0.749-0.75
	s-0.334-0.75-0.749-0.75h-31.931c-0.415,0-0.75,0.336-0.75,0.75S1339.113,55.277,1339.528,55.277L1339.528,55.277z"/>
</svg>
